assets/svg/1F4CA.svg

<svg xmlns="http://www.w3.org/2000/svg" viewBox="0 0 64 64" enable-background="new 0 0 64 64"><path fill="#e6e7e8" d="M63.596,56.737c0,3.789-3.067,6.86-6.854,6.86H6.853C3.069,63.598,0,60.526,0,56.737V6.856
		C0,3.071,3.069,0,6.853,0h49.889c3.787,0,6.854,3.071,6.854,6.856V56.737z"/><path fill="#cccbcb" d="m0 48.42v8.313c0 3.789 3.069 6.86 6.853 6.86h49.889c3.787 0 6.854-3.071 6.854-6.86v-49.883c-10.86 39.448-49.899 41.949-63.6 41.57"/><path fill="#208d55" d="m19.11 63.65v-38.662c0-2.059-3.668-3.727-5.728-3.727-2.059 0-5.729 1.668-5.729 3.727v38.662h11.457"/><path fill="#1b8049" d="m15.547 21.789c-.771-.27-1.542-.438-2.163-.438-2.059 0-5.729 1.668-5.729 3.727v38.662h4.325v-38.662c0-1.438 1.788-2.668 3.567-3.289"/><path fill="#f05a28" d="m36.721 63.65v-26.66c0-2.06-2.669-3.62-4.728-3.62-2.059 0-4.729 1.561-4.729 3.62v26.66h9.457"/><path fill="#d04427" d="m33.774 33.718c-.594-.217-1.211-.348-1.781-.348-2.059 0-4.729 1.561-4.729 3.62v26.66h3.565v-26.66c0-1.488 1.397-2.706 2.945-3.272"/><path fill="#0867a3" d="M55.938,63.65V6.985c0-2.059-3.669-3.727-5.728-3.727s-5.729,1.668-5.729,3.727V63.65H55.938z"/><path fill="#055e8c" d="m52.35 3.684c-.762-.262-1.52-.426-2.135-.426-2.059 0-5.729 1.668-5.729 3.727v56.665h4.271v-56.665c-.0001-1.443 1.804-2.682 3.593-3.301"/></svg>

<?xml version="1.0" encoding="utf-8"?>
<!-- Generator: Adobe Illustrator 16.0.0, SVG Export Plug-In . SVG Version: 6.00 Build 0)  -->
<!DOCTYPE svg PUBLIC "-//W3C//DTD SVG 1.1//EN" "http://www.w3.org/Graphics/SVG/1.1/DTD/svg11.dtd">
<svg version="1.1" id="Layer_1" xmlns="http://www.w3.org/2000/svg" xmlns:xlink="http://www.w3.org/1999/xlink" x="0px" y="0px"
	 width="64px" height="64px" viewBox="0 0 64 64" enable-background="new 0 0 64 64" xml:space="preserve">
<g>
	<path fill="#E6E7E8" d="M63.596,56.737c0,3.789-3.067,6.86-6.854,6.86H6.853C3.069,63.598,0,60.526,0,56.737V6.856
		C0,3.071,3.069,0,6.853,0h49.889c3.787,0,6.854,3.071,6.854,6.856V56.737z"/>
	<path fill="#CCCBCB" d="M0,48.424v8.313c0,3.789,3.069,6.86,6.853,6.86h49.889c3.787,0,6.854-3.071,6.854-6.86V6.854
		C52.736,46.302,13.697,48.803,0,48.424z"/>
	<path fill="#208D55" d="M19.112,63.65V24.988c0-2.059-3.668-3.727-5.728-3.727c-2.059,0-5.729,1.668-5.729,3.727V63.65H19.112z"/>
	<path fill="#1B8049" d="M15.547,21.789c-0.771-0.27-1.542-0.438-2.163-0.438c-2.059,0-5.729,1.668-5.729,3.727V63.74h4.325V25.078
		C11.98,23.64,13.768,22.41,15.547,21.789z"/>
	<path fill="#F05A28" d="M36.721,63.65V36.99c0-2.06-2.669-3.62-4.728-3.62c-2.059,0-4.729,1.561-4.729,3.62v26.66H36.721z"/>
	<path fill="#D04427" d="M33.774,33.718c-0.594-0.217-1.211-0.348-1.781-0.348c-2.059,0-4.729,1.561-4.729,3.62v26.66h3.565V36.99
		C30.829,35.502,32.226,34.284,33.774,33.718z"/>
	<path fill="#0867A3" d="M55.938,63.65V6.985c0-2.059-3.669-3.727-5.728-3.727s-5.729,1.668-5.729,3.727V63.65H55.938z"/>
	<path fill="#055E8C" d="M52.346,3.684c-0.762-0.262-1.52-0.426-2.135-0.426c-2.059,0-5.729,1.668-5.729,3.727V63.65h4.271V6.985
		C48.752,5.542,50.557,4.303,52.346,3.684z"/>
</g>
</svg>
